source/img/icon-editor-fill.svg

<svg width="48" height="48" xmlns="http://www.w3.org/2000/svg">

 <g>
  <title>background</title>
  <rect fill="none" id="canvas_background" height="402" width="582" y="-1" x="-1"/>
 </g>
 <g>
  <title>Layer 1</title>
  <path id="svg_1" d="m0,0l48,0l0,48l-48,0l0,-48z" fill="none"/>
  <path fill="#d22856" id="svg_2" d="m33.12,17.88l-17.88,-17.88l-2.83,2.83l4.76,4.76l-10.29,10.29c-1.17,1.17 -1.17,3.07 0,4.24l11,11c0.58,0.59 1.35,0.88 2.12,0.88s1.54,-0.29 2.12,-0.88l11,-11c1.17,-1.17 1.17,-3.07 0,-4.24zm-22.71,2.12l9.59,-9.58l9.59,9.58l-19.18,0zm27.59,3c0,0 -4,4.33 -4,7c0,2.21 1.79,4 4,4s4,-1.79 4,-4c0,-2.67 -4,-7 -4,-7z"/>
  <rect fill="#d22856" id="svg_3" height="3" width="48" y="40"/>
 </g>
</svg>

<svg version="1.0" id="Layer_1" xmlns="http://www.w3.org/2000/svg" xmlns:xlink="http://www.w3.org/1999/xlink" x="0px" y="0px" width="48px" height="48px" viewBox="0 0 48 48" enable-background="new 0 0 48 48" xml:space="preserve">
  <path fill="none" d="M0,0h48v48H0V0z"/>
  <path d="M33.12,17.88L15.24,0l-2.83,2.83l4.76,4.76L6.88,17.88c-1.17,1.17-1.17,3.07,0,4.24l11,11C18.46,33.71,19.23,34,20,34 s1.54-0.29,2.12-0.88l11-11C34.29,20.95,34.29,19.05,33.12,17.88z M10.41,20L20,10.42L29.59,20H10.41z M38,23c0,0-4,4.33-4,7 c0,2.21,1.79,4,4,4s4-1.79,4-4C42,27.33,38,23,38,23z"/>
  <rect y="40" width="48" height="3"/>
</svg>
